Obsidian-SemiLight/actions/22s/handle-right.svg

<svg viewBox="0 0 22 22" xmlns="http://www.w3.org/2000/svg"><path d="m3 4v2h2v-2zm4 0v2h2v-2zm4 0v2h2v-2zm4 0v3l2 4-2 4v3l4-7zm-12 4v2h2v-2zm4 0v2h2v-2zm4 0v2h2v-2zm-8 4v2h2v-2zm4 0v2h2v-2zm4 0v2h2v-2zm-8 4v2h2v-2zm4 0v2h2v-2zm4 0v2h2v-2z" fill="#4d4d4d"/></svg>

<svg xmlns="http://www.w3.org/2000/svg" viewBox="0 0 22 22">
  <defs id="defs3051">
    <style type="text/css" id="current-color-scheme">
      .ColorScheme-Text {
        color:#4d4d4d;
      }
      </style>
  </defs>
 <path 
    style="fill:currentColor;fill-opacity:1;stroke:none" 
    d="M 3 4 L 3 6 L 5 6 L 5 4 L 3 4 z M 7 4 L 7 6 L 9 6 L 9 4 L 7 4 z M 11 4 L 11 6 L 13 6 L 13 4 L 11 4 z M 15 4 L 15 7 L 17 11 L 15 15 L 15 18 L 19 11 L 15 4 z M 3 8 L 3 10 L 5 10 L 5 8 L 3 8 z M 7 8 L 7 10 L 9 10 L 9 8 L 7 8 z M 11 8 L 11 10 L 13 10 L 13 8 L 11 8 z M 3 12 L 3 14 L 5 14 L 5 12 L 3 12 z M 7 12 L 7 14 L 9 14 L 9 12 L 7 12 z M 11 12 L 11 14 L 13 14 L 13 12 L 11 12 z M 3 16 L 3 18 L 5 18 L 5 16 L 3 16 z M 7 16 L 7 18 L 9 18 L 9 16 L 7 16 z M 11 16 L 11 18 L 13 18 L 13 16 L 11 16 z "
    class="ColorScheme-Text"
    />  
</svg>
